!!!COM: Anon.
!!!OTL: Deus Pacis et Dilectionis
!!!SCA: Folio 363
!!!YOR: from 'Thirty-Five Conductus for Two and Three Voices', pp.129-130
!!!YOR: edited by Janet Knapp, Collegium Musicum No. 6, Yale University (1965)
!!!YOR: from the School of Notre Dame; circa 1170-1240
!!!YOO: Yale University
!!!YOY: 1965
**kern	**kern
*M6/8	*M6/8
=1	=1
4D	4A
8r	8B
4C	4c
8r	8B
=2	=2
4D	4A
8E	8r
4F	4F
8E	8G
=3	=3
4D	8A
.	8G
8D	8F
4C	4G
8r	8r
=4	=4
4E	4B
8F	8r
4G	4G
8F	8A
=5	=5
4E	8B
.	8A
8E	8G
4D	4A
8r	8r
=6	=6
4A	4c
8A	8r
4G	4d
8G	8d
=7	=7
8A	8c
8G	8B
8F	8A
4E	4B
8r	8r
=8	=8
4F	4c
8D	8B
4E	8A
.	8G
8D	8F
=9	=9
4.C	4.E
4D	4D
8r	8r
=10	=10
4.D	4.d
4.F	4.c
=11	=11
4.G	8d
.	8c
.	8B
4.A	4.A
=12	=12
4c	4A
8d	8G
4c	4F
8A	8A
=13	=13
8B-	8G
8A	8A
8G	8Bn
4F	4c
8r	8r
=14	=14
4F	4A
8E	8B-
4D	4A
8E	8G
=15	=15
4C	4G
8D	8A
4F	4F
8r	8r
=16	=16
4G	4E
8A	8D
4G	4E
8F	8F
=17	=17
4E	4G
8F	8A
8G	8G
8G	8G
8F	8F
=18	=18
4.E	4.G
4D	4A
8r	8r
=19	=19
4A	4D
8B-	8r
4A	4D
8G	8E
=20	=20
4F	4F
8E	8G
4D	4A
8r	8r
=21	=21
4F	4c
8G	8B
4A	4A
8B	8G
=22	=22
4c	4F
8B	8G
4A	4A
8r	8r
=23	=23
4c	4A
8d	8G
4c	4A
8B	8B
=24	=24
8A	8c
8G	8B
8F	8A
4E	4B
8r	8r
=25	=25
4F	4c
8G	8B
8F	8A
8E	8G
8D	8F
=26	=26
4C	4G
8D	8A
4.F	8F
.	8E
.	8D
=27	=27
4.E	4.C
4D	4D
8r	8r
=28	=28
4c	4A
8r	8A
4d	4G
8r	8A
=29	=29
4c	8c
.	8B
8c	8A
4d	4G
8d	8r
=30	=30
8c	4F
8B	.
8c	8G
8A	8A
8A	8A
8G	8B
=31	=31
4.F	8c
.	8B
.	8A
4.G	4G
.	8r
=32	=32
4c	4F
8B	8G
4A	4A
8r	8r
=33	=33
4G	4B
8F	8c
4E	4B
8D	8A
=34	=34
4C	4G
8D	8A
4F	4F
8F	8E
=35	=35
4E	4.G
8E	.
4D	4A
8r	8r
=36	=36
4A	4A
8B	8G
4c	4F
8A	8F
=37	=37
4.B	4E
.	8G
4A	4A
8r	8r
=38	=38
4G	4B
8A	8c
4G	4B
8F	8A
=39	=39
4.E	4.G
4D	4A
8r	8r
=40	=40
4A	4A
8G	8B
4F	8c
.	8B
8F	8A
=41	=41
4E	4.B
8G	.
4A	4A
8r	8r
=42	=42
4B	4G
8c	8A
4B	4G
8A	8F
=43	=43
4.G	4.E
4A	4D
8r	8r
=44	=44
4c	4F
8B	8G
4A	4A
8G	8B
=45	=45
4F	8c
.	8B
8E	8G
4D	4A
8r	8r
=46	=46
4F	4c
8G	8d
4A	4c
8G	8B
=47	=47
8F	4.A
8E	.
8F	.
4G	4G
8r	8r
=48	=48
4c	4F
8B	8G
4A	4A
8G	8B
=49	=49
4F	4A
8E	8G
4D	4A
8C	8r
=50	=50
4F	4c
8D	8B
4E	8A
.	8G
8D	8F
=51	=51
4.C	4.E
4D	4D
8r	8r
=52	=52
[2.D	4A
.	8G
.	8A
.	16A
.	16G
.	16F
.	16E
=53	=53
4.D]	8D
.	8E
.	8F
4C	4G
8r	8r
=54	=54
[2.C	4c
.	8B
.	8c
.	16c
.	16B
.	8A
=55	=55
2.C]	8G
.	8A
.	8B
.	4.c
=56	=56
[2.D	4A
.	8r
.	8A
.	8B
.	8c
=57	=57
2.D_	4.d
.	8e
.	8d
.	8d
=58	=58
4.D]	4.c
[4.D	4.c
=59	=59
4.D;]	4.d;
4.r	4.r
==	==
*-	*-
!!!ENC: David Huron
!!!YEC: Copyright 1987, David Huron
!!!EEV: 1.0
